X:0373
T:Peep of Day.
M:C|
L:1/8
Q:1/2=100
I: :: ||
Z:Jack Campin * www.campin.me.uk * 2009
K:G
G2 BG dGBG| A/A/A Bd e2g2|G2 BG dGBG|cABG  E2D2:|
g>age dBGB|(gag).e   agab|g>age dBGB|cABG TE2D2 |
g>age dBGB|(g>ag)e   agab|gbeg  dgBG|cABG TE2D2|]

